core/img/filetypes/folder-starred.svg

<svg width="16" height="16" version="1.1" viewBox="0 0 16 16" xmlns="http://www.w3.org/2000/svg"><path d="m1.5 2c-0.25 0-0.5 0.25-0.5 0.5v11c0 0.26 0.24 0.5 0.5 0.5h13c0.26 0 0.5-0.241 0.5-0.5v-9c0-0.25-0.25-0.5-0.5-0.5h-6.5l-2-2h-4.5zm6.5 3.25 1.1 2.6504 2.9 0.2246-2.25 1.875 0.75 2.75-2.5-1.551-2.5 1.551 0.75-2.75-2.25-1.875 2.9-0.2246 1.1-2.6504z" fill="#0082c9"/></svg>

<svg xmlns="http://www.w3.org/2000/svg" width="16" height="16"><path fill="#0082c9" d="M1.5 2c-.25 0-.5.25-.5.5v11c0 .26.24.5.5.5h13c.26 0 .5-.241.5-.5v-9c0-.25-.25-.5-.5-.5H8L6 2H1.5zM8 5.25 9.1 7.9l2.9.225L9.75 10l.75 2.75L8 11.199 5.5 12.75 6.25 10 4 8.125 6.9 7.9 8 5.25z"/></svg>
